!!!COM:	Bach, Johann Sebastian
!!!OMV:	Jesu Leiden, Pein und Tod
!!!OTL:	Jesu Leiden, Pein und Tod
**kern	**fb	**kern	**kern	**kern	**kern
*part5	*part5	*part4	*part3	*part2	*part1
*staff5	*	*staff4	*staff3	*staff2	*staff1
*I"Continuo	*	*I"Voice	*I"Voice	*I"Voice	*I"Voice
*I'Cont.	*	*I'V	*I'V	*I'V	*I'V
*clefF4	*	*clefF4	*clefGv2	*clefG2	*clefG2
*Trd0c0	*	*	*	*	*
*k[b-e-a-]	*	*k[b-e-a-]	*k[b-e-a-]	*k[b-e-a-]	*k[b-e-a-]
*M4/4	*	*M4/4	*M4/4	*M4/4	*M4/4
=	=	=	=	=	=
4E-	.	4E-	4B-	4e-	4g
4BB-	8	4BB-	8B-L	4d	4f
.	7	.	8A-J	.	.
4C	9	4C	4G	8dL	4e-
.	8	.	.	8cJ	.
4D	7	4D	4F	8cL	4f
.	6	.	.	8B-J	.
=3	=3	=3	=3	=3	=3
4E-	.	4E-	8E-L	4B-	4g
.	.	.	8e-J	.	.
4F	7	4F	8e-L	4A-	4a-
.	-r6	.	8d-XJ	.	.
2G;	6 -r5	2G;	2d-;	2e-;	2b-;
=4	=4	=4	=4	=4	=4
4A-	.	4A-	4c	8e-L	4cc
.	.	.	.	8a-J	.
4B-	7 n	4B-	4dn	8a-L	4b-
.	6	.	.	8gJ	.
4c	6	4c	8e-L	8gL	4a-
.	.	.	8dJ	8fJ	.
8B-L	6	8B-L	8e-L	4e-	8gL
8A-J	6	8A-J	8cJ	.	8fJ
=5	=5	=5	=5	=5	=5
4B-	5 4	4B-	4.B-	4e-	2f
4BB-	.	4BB-	.	4d	.
.	.	.	8A-	.	.
2E-;	.	2E-;	2G;	2B-;	2e-;
=6	=6	=6	=6	=6	=6
8E-L	.	8E-L	4B-	4e-	4g
8DJ	.	8DJ	.	.	.
8DL	6	8DL	4B-	4f	4b-
8CJ	.	8CJ	.	.	.
[2C	6	[2C	8cL	8e-L	4a-
.	.	.	8dJ	8fJ	.
.	5	.	8e-L	8gL	4g
.	.	.	8cJ	8e-J	.
=7	=7	=7	=7	=7	=7
!!linebreak:original
8CL]	9	8CL]	8A-L	4d	4f
8BBnJ	.	8BBnJ	8GJ	.	.
8CL	5	8CL	4G	4c	4e-
8E-J	.	8E-J	.	.	.
2G;	n	2G;	2G;	2Bn;	2d;
=8	=8	=8	=8	=8	=8
8CL	.	8CL	4G	4c	4e-
8cJ	.	8cJ	.	.	.
8B-L	5_	8B-L	4B-	4d	4f
8A-J	.	8A-J	.	.	.
8GL	6_	8GL	4B-	4e-	4g
8FJ	.	8FJ	.	.	.
8E-L	.	8E-L	4B-	[4e-	4g
8DJ	.	8DJ	.	.	.
=9	=9	=9	=9	=9	=9
8CL	6_	8CL	8cL	8e-]	2a-
8F	.	8F	8A-	16dLL	.
.	..	.	.	16e-JJ	.
8D	.	8D	8F	8fL	.
8BB-J	.	8BB-J	8B-J	8dJ	.
2E-;	.	2E-;	2B-;	2e-;	2g;
=10	=10	=10	=10	=10	=10
4C	.	4C	4c	4e-	4g
8BB-L	.	8BB-L	4c	4e-	4a-
8AA-J	.	8AA-J	.	.	.
8GG	6	8GG	4B-	4en	4b-
4G	.	4G	.	.	.
.	.	.	4c	4f	4a-
[8F	.	[8F	.	.	.
=11	=11	=11	=11	=11	=11
8FL]	-r6 4 2	8FL]	4B-	8d-XL	4g
8EnJ	6	8EnJ	.	8cJ	.
4F	5	4F	4A-	8cL	4f
.	nr6	.	.	8dnJ	.
2C;	n	2C;	2G;	2en;	2g;
=12	=12	=12	=12	=12	=12
!!pagebreak:original
8FL	.	8FL	8A-L	4c	4f
8GJ	.	8GJ	8B-J	.	.
4A-	6 3	4A-	8cL	8cL	4f
.	4	.	8B-J	8dJ	.
4G	.	4G	4.B-	4e-	8gL
.	.	.	.	.	8anJ
4G-X	6 3	4G-X	.	8d-XL	4b-
.	.	.	8c	8e-J	.
=13	=13	=13	=13	=13	=13
8FL	-r6 4	8FL	4d-X	2f	4b-
8E-J	.	8E-J	.	.	.
4F	5 n	4F	4c	.	4an
2BB-;	n	2BB-;	2dn;	2f;	2b-;
=14	=14	=14	=14	=14	=14
8DL	6	8DL	4B-	4f	4b-
8BB-J	.	8BB-J	.	.	.
4.E-	5	4E-	4B-	8e-L	4g
.	.	.	.	8fJ	.
.	6	8E-L	4e-	4g	4cc
8C	.	8CJ	.	.	.
4G	5	4G	8dL	4g	4b-
.	.	.	8B-J	.	.
=15	=15	=15	=15	=15	=15
8GL	9	8GL	8cL	8e-L	4a-
8FJ	6	8FJ	8dJ	8fJ	.
8GL	.	8GL	4e-	8B-L	4g
8A-J	.	8A-J	.	8cJ	.
2B-;	.	2B-;	2B-;	2d;	2f;
=16	=16	=16	=16	=16	=16
4.E-	3	4.E-	8B-L	4.e-	8gL
.	4	.	8A-J	.	8a-J
.	.	.	8GL	.	4b-
8D	6	8D	8FJ	8B-	.
4C	6	8CL	8E-L	8e-L	4a-
.	.	8cJ	8DJ	8fJ	.
8BB-L	6	8B-L	4E-	8gL	8gL
8AA-J	6	8A-J	.	8cJ	8fJ
=17	=17	=17	=17	=17	=17
!!linebreak:original
2BB-	5 4	4B-	4.B-	8d	2f
.	.	.	.	16e-LL	.
.	.	.	.	16cJJ	.
.	3	4BB-	.	4d	.
.	.	.	8A-	.	.
2EE-;	.	2E-;	2G;	2B-;	2e-;
=||	=||	=||	=||	=||	=||
*-	*-	*-	*-	*-	*-
!!!system-decoration: s1,s2,s3,s4,s5
